X:18
T:Obelist THO3.018, The
O:England;London
M:C|
L:1/8
N:Replaced missing repeat in B music
Z:vmp. Peter Dunk 2011.from a transcription by Fynn Titford-Mock 2006-9
B:Thompson's Compleat Collection of 200 Favourite Country Dances Vol. III.1765-72
Q:1/2=80
K:F
AB|cAGF dBAG|cbge faAB|cAGF G=Bdf|ecd=B c2:|
|:AB|cegb ceac|Bdgf fedc|dBAc Begb|agfe f2"?":|

